!!!OTL: He wangdaniang lagua
!!!ARE: Asia, China,ÿShandong Wulian
!! III, 338
!!!SCT: C1763
!!!YEM: Copyright 1995, estate of Helmut Schaffrath.
**kern
*ICvox
*Ivox
*M2/4
*k[b-]
*F:
{8cc
8a
8a
8cc
=1
8.dd
16ff
8cc
8a
=2
8dd
16dd
16ff
8dd
8cc
=3
8a
16g
16a
4f}
=4
{8cc
8a
8a
8cc
=5
8dd
8ff
8cc
8a
=6
8dd
16dd
16ff
8dd
8cc
=7
8a
16g
16a
4f}
=8
{8cc
8d
8f
16d
16f
=9
8g
8cc
4a
=10
8g
16g
16f
8g
8a
=11
8dd
8a
8g
8f
=12
8d
16d
16c
8d
8g
=13
4.f}
{8ff
=14
8dd
16dd
16cc
8a
16ff
16dd
=15
8cc
4cc
8a
=16
16g
16a
16g
16f
8d
16a
16g
=17
2f}
==
!!!AGN: Xiaodiao
!! Humorvoll
!!!AMT: simple duple
!!!AIN: vox
!!!EED: Helmut Schaffrath
!!!EEV: 1.0
*-
